X: 4047
M: C|
L: 1/8
K: Edor	% and D
|:\
vB2(GB) EBGB | A2(FA) DAFA |\
|:\
afdf g2(ec) | dBAG F2D2 |\
[1 afdf g2(fg) | egfd e2(fg) :|\
[2 EGFA GABd | egfa gedc |]


